assets/Aries/Flat/aries_flat.svg

<svg xmlns="http://www.w3.org/2000/svg" width="32" height="32" fill="none"><path fill="#8D65C5" d="M2 6a4 4 0 0 1 4-4h20a4 4 0 0 1 4 4v20a4 4 0 0 1-4 4H6a4 4 0 0 1-4-4V6Z"/><path fill="#fff" d="M22.76 5.5c-1.01 0-1.99.36-2.75 1.02-.77.65-1.27 1.56-1.43 2.56l-2.41 15.28c-.01.08-.08.14-.17.14-.08 0-.16-.06-.17-.14L13.42 9.07c-.16-1-.67-1.9-1.43-2.56A4.242 4.242 0 0 0 5 9.74c0 .55.45 1 1 1s1-.45 1-1C7 8.5 8 7.5 9.24 7.5c1.11 0 2.04.79 2.21 1.89l2.41 15.28A2.161 2.161 0 0 0 16 26.5c1.07 0 1.98-.77 2.14-1.83l2.41-15.28c.17-1.09 1.1-1.89 2.21-1.89C24 7.5 25 8.5 25 9.74c0 .55.45 1 1 1s1-.45 1-1c0-2.34-1.9-4.24-4.24-4.24Z"/></svg>

<svg width="32" height="32" viewBox="0 0 32 32" fill="none" xmlns="http://www.w3.org/2000/svg">
<path d="M2 6C2 3.79086 3.79086 2 6 2H26C28.2091 2 30 3.79086 30 6V26C30 28.2091 28.2091 30 26 30H6C3.79086 30 2 28.2091 2 26V6Z" fill="#8D65C5"/>
<path d="M22.76 5.5C21.75 5.5 20.77 5.86 20.01 6.52C19.24 7.17 18.74 8.08 18.58 9.08L16.17 24.36C16.16 24.44 16.09 24.5 16 24.5C15.92 24.5 15.84 24.44 15.83 24.36L13.42 9.07C13.26 8.07 12.75 7.17 11.99 6.51C11.22 5.86 10.24 5.5 9.24 5.5C6.9 5.5 5 7.4 5 9.74C5 10.29 5.45 10.74 6 10.74C6.55 10.74 7 10.29 7 9.74C7 8.5 8 7.5 9.24 7.5C10.35 7.5 11.28 8.29 11.45 9.39L13.86 24.67C14.03 25.73 14.93 26.5 16 26.5C17.07 26.5 17.98 25.73 18.14 24.67L20.55 9.39C20.72 8.3 21.65 7.5 22.76 7.5C24 7.5 25 8.5 25 9.74C25 10.29 25.45 10.74 26 10.74C26.55 10.74 27 10.29 27 9.74C27 7.4 25.1 5.5 22.76 5.5Z" fill="white"/>
</svg>
